X:2800
T:Celtic Colours #2
R:reel
C:Brenda Stubbert
O:20th century Cape Breton
S:Tune of the Month. October,1998.
D:The Celtic Colours Festival 1998 - The Second Wave, Some Tasty Tunes,
Brenda Stubbert, 1999
B:previously unpublished
A:<http://www.capebretonet.com/Music/Stubbert>
N:Contacts ...
N:Recordings and bookings
N:..... <brenda@cranfordpub.com>
N:Tune books and related recordings
N:..... Cranford Publications <http://www.cranfordpub.com>
H:Copyrights:Published by Stubbert Music
Z:This abc transcription is for personal use only,
Z:provided this notice remains attached.
Z:Used by permission of the composer and publisher.
Z:Paul Stewart Cranford - psc@cranfordpub.com
Q:333
L:1/8
M:C|
K:Baeo
FBAc BAFE|FBAc B2 ce|f2 af e/e/e ce|fecB ABcA|!
FBAc BAFE|FBAc B2 ce|fa a/a/a f2 ed|cedc B3 z:|!
|:BdcA BFF2|B,DFB defa|ecc2 afec|ABcA BAFE|!
BdcA BFF2|B,DFB defa|ecc2 afec|fecA B3 z:|!


